X:1
T: Joe Murphy's Reel
C:
R:Reel
Q: 232
K:D
M:4/4
L:1/8
A2|:Ad ce d2 Ac|d2 AG FD D2|Be ^df e2 Bd|e2 BA GE E2|
Ad ce d2 Ac|d2 AG Fd fa|gf ed cB AG|((3FGA) EG FD D2|
FD DE F2 FE|Dd cd AF F2|GE EF G2 GF|Ee ed cB AG|
FD DE F2 FE|Dd cd dA FD|EF GA Bc de|((3fga) eg fd d2:|
